src/icons/graph.svg

<svg width="16" height="14" viewBox="0 0 16 14" fill="none" xmlns="http://www.w3.org/2000/svg">
<path d="M13.8194 6.92736C13.383 6.92708 12.9589 7.07109 12.613 7.33696L9.25935 5.03296C9.56767 4.47488 9.70682 3.8391 9.65981 3.20325C9.61281 2.5674 9.38168 1.959 8.99465 1.45232C8.60762 0.945644 8.08143 0.562621 7.48034 0.350017C6.87924 0.137413 6.22925 0.104429 5.60972 0.25509C4.9902 0.405752 4.42794 0.733541 3.99161 1.19843C3.55527 1.66333 3.26374 2.24521 3.15261 2.87303C3.04147 3.50086 3.11555 4.14746 3.36578 4.73388C3.61602 5.32031 4.03159 5.82119 4.56175 6.17536L3.57615 8.65536C3.42107 8.62596 3.2636 8.61096 3.10575 8.61056C2.4711 8.60765 1.85629 8.83156 1.37213 9.24191C0.887981 9.65226 0.56634 10.2221 0.46519 10.8486C0.36404 11.4752 0.490034 12.1172 0.820462 12.6591C1.15089 13.2009 1.66401 13.6069 2.26734 13.8039C2.87066 14.0008 3.5245 13.9758 4.11099 13.7333C4.69748 13.4907 5.17804 13.0467 5.46604 12.4811C5.75405 11.9156 5.83055 11.2657 5.68176 10.6488C5.53297 10.0318 5.16868 9.48827 4.65455 9.11616L5.63695 6.64256C5.88355 6.70009 6.13575 6.73014 6.38895 6.73216C7.17111 6.73256 7.9274 6.45207 8.52015 5.94176L11.9314 8.28736C11.8638 8.494 11.8293 8.70998 11.829 8.92736C11.829 9.32179 11.946 9.70736 12.1652 10.0353C12.3844 10.3632 12.6959 10.6187 13.0604 10.7695C13.4248 10.9203 13.8259 10.9596 14.2127 10.8824C14.5995 10.8052 14.9547 10.615 15.2334 10.3359C15.5121 10.0568 15.7017 9.70126 15.7782 9.31433C15.8548 8.9274 15.8149 8.52645 15.6635 8.16222C15.5121 7.798 15.2561 7.48686 14.9278 7.26819C14.5995 7.04951 14.2138 6.93313 13.8194 6.93376V6.92736Z" fill="currentColor"/>
</svg>

<svg width="16" height="14" fill="none" xmlns="http://www.w3.org/2000/svg"><path d="M13.82 6.927c-.437 0-.861.144-1.207.41L9.259 5.033a3.283 3.283 0 10-4.697 1.142l-.986 2.48a2.662 2.662 0 101.078.46l.983-2.472c.247.057.499.087.752.09.782 0 1.538-.28 2.131-.791l3.411 2.345a2.067 2.067 0 00-.102.64 1.994 1.994 0 101.99-1.993v-.007z" fill="currentColor"/></svg>
